icons/telescope-24.svg

<svg width="24" height="24" viewBox="0 0 24 24" fill="none" xmlns="http://www.w3.org/2000/svg">
<path fill-rule="evenodd" clip-rule="evenodd" d="M0.407607 15.1298C-0.112065 14.2297 0.144317 13.0815 0.997522 12.488L17.0382 1.32916C17.9843 0.670988 19.2895 0.946585 19.8887 1.93108L22.7156 6.57533C23.3325 7.58878 22.9365 8.91336 21.8647 9.42203L4.10267 17.8515C3.16112 18.2983 2.03426 17.9472 1.51316 17.0447L0.407607 15.1298ZM5.67143 11.0638L13.5131 5.60869L16.3696 10.3696L7.65766 14.504L5.67143 11.0638ZM4.43571 11.9234L1.85411 13.7193C1.64081 13.8677 1.57671 14.1547 1.70663 14.3798L2.81218 16.2947C2.94246 16.5203 3.22417 16.6081 3.45956 16.4964L6.29813 15.1492L4.43571 11.9234ZM17.7311 9.72339L14.7472 4.75014L17.8948 2.5605C18.1313 2.39596 18.4576 2.46486 18.6074 2.71098L21.4343 7.35523C21.5885 7.60859 21.4895 7.93974 21.2216 8.06691L17.7311 9.72339Z" fill="#24292E"/>
<path d="M17.1547 22.8702C17.5034 22.6466 17.6048 22.1827 17.3812 21.834L13.3812 15.5953C13.18 15.2814 12.7789 15.163 12.4395 15.3173L9.68953 16.5673C9.55967 16.6263 9.44933 16.7211 9.37147 16.8407L6.12155 21.8295C5.89547 22.1766 5.99354 22.6412 6.34061 22.8673C6.68768 23.0934 7.15232 22.9953 7.3784 22.6483L10.5091 17.8424L11.0195 17.6104V23.25C11.0195 23.6642 11.3553 24 11.7695 24C12.1837 24 12.5195 23.6642 12.5195 23.25V17.0303L16.1185 22.6436C16.342 22.9923 16.806 23.0937 17.1547 22.8702Z" fill="#24292E"/>
</svg>

<svg xmlns="http://www.w3.org/2000/svg" width="24" height="24" viewBox="0 0 24 24"><path fill-rule="evenodd" d="M.408 15.13a2 2 0 01.59-2.642L17.038 1.33a2 2 0 012.85.602l2.828 4.644a2 2 0 01-.851 2.847l-17.762 8.43a2 2 0 01-2.59-.807L.408 15.13zm5.263-4.066l7.842-5.455 2.857 4.76-8.712 4.135-1.987-3.44zm-1.235.86L1.854 13.72a.5.5 0 00-.147.66l1.105 1.915a.5.5 0 00.648.201l2.838-1.347-1.862-3.225zm13.295-2.2L14.747 4.75l3.148-2.19a.5.5 0 01.713.151l2.826 4.644a.5.5 0 01-.212.712l-3.49 1.656z"/><path d="M17.155 22.87a.75.75 0 00.226-1.036l-4-6.239a.75.75 0 00-.941-.278l-2.75 1.25a.75.75 0 00-.318.274l-3.25 4.989a.75.75 0 001.256.819l3.131-4.806.51-.232v5.64a.75.75 0 101.5 0v-6.22l3.6 5.613a.75.75 0 001.036.226z"/></svg>
